images/footer-pinterest.svg

<svg width="24" height="24" viewBox="0 0 24 24" fill="none" xmlns="http://www.w3.org/2000/svg">
<path d="M10.67 15.0972C10.164 17.8232 9.54802 20.4372 7.72002 21.8022C7.15702 17.6822 8.54902 14.5872 9.19502 11.3022C8.09302 9.39219 9.32802 5.54719 11.652 6.49419C14.512 7.66019 9.17502 13.5962 12.758 14.3382C16.499 15.1122 18.027 7.65519 15.707 5.22919C12.355 1.72819 5.95002 5.15019 6.73802 10.1632C6.93002 11.3892 8.15902 11.7612 7.22902 13.4532C5.08402 12.9622 4.44402 11.2202 4.52702 8.89719C4.65902 5.09719 7.84402 2.43519 11.038 2.06719C15.078 1.60119 18.869 3.59419 19.392 7.50719C19.982 11.9232 17.569 16.7072 13.25 16.3622C12.079 16.2692 11.587 15.6722 10.67 15.0972Z" fill="#95E1D3"/>
</svg>

<svg width="24" height="24" fill="none" xmlns="http://www.w3.org/2000/svg"><path d="M10.67 15.097c-.506 2.726-1.122 5.34-2.95 6.705-.563-4.12.829-7.215 1.475-10.5-1.102-1.91.133-5.755 2.457-4.808 2.86 1.166-2.477 7.102 1.106 7.844 3.741.774 5.269-6.683 2.949-9.109-3.352-3.5-9.757-.079-8.969 4.934.192 1.226 1.421 1.598.491 3.29-2.145-.49-2.785-2.233-2.702-4.556.132-3.8 3.317-6.462 6.511-6.83 4.04-.466 7.831 1.527 8.354 5.44.59 4.416-1.823 9.2-6.142 8.855-1.171-.093-1.663-.69-2.58-1.265Z" fill="#95E1D3"/></svg>
